X:1
T:In the Hallowed Manger
T:In the Hallowed Manger
T:Thomas Adams
T:R. E. Adderley, before 1917
T:Public Domain Courtesy of the Cyber Hymnal™
T:Public Domain Courtesy of the Cyber Hymnal™
C:Thomas Adams
Z:Public Domain
Z:Courtesy of the Cyber Hymnal™
%%score ( 1 2 ) ( 3 4 )
L:1/8
Q:1/4=87
M:6/8
K:C
V:1 treble 
V:2 treble 
V:3 bass 
V:4 bass 
V:1
 [CE]2 [CE] (DC)[B,D] | [CE]3 [CG]3 | [CE]2 [CE] (DC)[A,D] | [CE]6 | [B,G]2 [B,G] (E^F)[EG] | %5
w: 1.~In the hal- * lowed|man- ger|Sleeps the Ho- * ly|Child;|Love and light * shine|
w: 2.~At the hal- * lowed|man- ger,|Bowed in faith * be-|fore,|Love’s di- vin- * est|
w: 3.~At the hal- * lowed|man- ger,|In our Babe’s * pure|birth,|Wist- ful hope * is|
 G3 D3 | [DB]2 [DB] (AG)[=EA] | B6 | [Ec]2 [Ec] ([FA][EG])[FA] | c3 [EG]3 | %10
w: from Him,|Though the win- * ter’s|wild:|Earth- storms yet * may|ga- ther,|
w: vi- sion,|Sim- ple swains * a-|dore:|Still true hearts * dis-|cov- er|
w: find- ing|Sanc- ti- ty * for|earth:|For the light * that|red- dened|
 [EA]2 [EA] ([FA][EG])[DF] | ([CE]3 [B,D]3) | (GA)[B,G] (BA)[B,G] | [Cc]3 [C^F]3 | %14
w: Loom- ing large * and|loud, *|Time * has touched * th’E-|ter- nal,|
w: That en- tranc- * ing|sight, *|Still * the Babe * of|Beth- lehem|
w: Once that mid- * night|sky, *|Flames * where still * that|Child heart|
 [CG]2 G (AG)[Fd] | [Ec]6 ||[M:4/4][Q:1/4=90]"^Maestoso e marcato" [EG]2 [DA]>[DA] [Ec]4 | %17
w: Light is in * the|cloud.||
w: Leads pure souls * to|light.|Glo- ry to God!|
w: Saves hu- man- * i-|ty.||
 [Gc][Gc]/[Gc]/ [Fc][Fd] [Ee]3 [^Fe] | (dB) (AG) [GB]2 [^FA]2 | G6 G2 | [Ec]2 (de) [Fc]2 (BA) | %21
w: ||||
w: Hark, how the wel- kin rings, And|night * is * wooed to|mirth: High|min- strels * ho- ver *|
w: ||||
 G>G [DA][DA] D3 [DF] | [CE]2 [B,A]2 !fermata![CG]2 (EC) | [CE]4 [B,D]4 | C8 |] %25
w: ||||
w: On a- dor- ing wings, And|breathe God’s peace, God’s *|peace, on|earth.|
w: ||||
V:2
 x3 A,2 x | x6 | x3 A,2 x | x6 | x3 E2 x | (D2 C) (B,2 C) | x3 _E2 x | (D3 F3) | x6 | (FED) x3 | %10
 x6 | x6 | B,2 D2 x2 | x6 | x2 G F2 x | x6 ||[M:4/4] x8 | x8 | G2 E2 x4 | G6 G2 | x2 E2 x F2 x | %21
 G>G x3/2 D3 x3/2 | x6 C2 | x8 | C8 |] %25
V:3
 [C,G,]2 [C,G,] [F,A,]2 [F,A,] | [C,G,]3 [C,E,]3 | [C,G,]2 [C,G,] [D,F,]2 [D,F,] | [C,G,]6 | %4
 [E,G,]2 [D,G,] (G,A,)[C,^A,] | (B,2 A,) (G,2 A,) | G,2 G, [C,G,]2 [C,^F,] | (G,3 D3) | %8
 [A,C]2 [A,C] (C_B,)[F,A,] | [C,G,]3 C3 | C2 [C,C] [D,A,]2 [D,A,] | ([E,G,]2 [F,A,] [G,B,]3) | %12
 [F,G,]2 [F,G,] [F,G,]2 [F,G,] | [E,G,]3 [^D,A,]3 | [E,G,]2 [E,C] (CB,)[G,,G,B,] | [C,G,C]6 || %16
[M:4/4] [C,C]2 [F,C]>[F,C] [C,G,C]4 | [CE][CE]/[CE]/ [A,C][G,B,] [C,G,C]3 [C,A,] | %18
 [B,,D]2 [D,B,]2 ([D,D][C,E]) [D,C]2 | [G,B,]6 G,2 | [C,G,]2 [C,G,]2 (G,A,) [D,B,]2 | %21
 [E,C]>[E,C] [F,C][F,C] (C2 B,)[B,,A,] | [C,G,]2 [D,F,]2 !fermata![E,G,]2 (G,E,) | %23
 [G,,G,]4 [G,,F,G,]4 | [C,E,G,]8 |] %25
V:4
 x6 | x6 | x6 | x6 | x3 C,2 x | G,,3 G,,3 | G,2 G, x3 | G,6 | x3 F,2 x | x3 (C,2 B,,) | %10
 (A,,B,,) x4 | x6 | x6 | x6 | x3 D,2 x | x6 ||[M:4/4] x8 | x8 | x8 | x6 G,2 | x4 D,2 x2 | %21
 x4 G,3 x | x6 C,2 | x8 | x8 |] %25

